X: 10742
T: LOVE VALSE
R: waltz
B: K\"ohler's Violin Repository, v.1, 1885 p.74 #2
F: http://www.archive.org/details/klersviolinrepos01edin
Z: 2012 John Chambers <jc:trillian.mit.edu>
M: 3/4
L: 1/8
K: F
vC2 uF2 |\
A6- | A2 {c}B2 A2 | G6- | G2 E2 F2 | {A}G2 ^F2 G2 | E2 (d3 c) | A6- | A2 C2 F2 |
A6- | A2 {c}B2 A2 | G6- | G2 E2 F2 | {A}G2 ^F2 G2 | C2 (A3 G) | F6- | F2 :||: vf2 ue2 |
(d4 B2) | (G4 E2) | (.F3 .A) c2 | z2 u(=BcBc) | (.e3 .e) e2- | e2 d2 c2 | (.a3 .f) f2 | z2 u(fgfe) |
(d4 B2) | (G4 E2) | {G}FEFGAB | cdefga | (.b3 .d) d2 | (.e3 .c) c2 | (.f3 .f) f2- | f2 :|

%%sep 2 1 500

